images/digibeter-icons/nl-digibeter.svg

<svg height="93" viewBox="0 0 624 93" width="624" xmlns="http://www.w3.org/2000/svg"><g fill="none" fill-rule="evenodd"><g fill="#e46b2b"><path d="m10.695 43.058h-.372v49.291h-10.323v-61.01h17.484l17.95 49.292h.372v-49.292h10.323v61.01h-17.485z"/><path d="m60.821 31.339h11.16v51.803h21.112v9.207h-32.272z"/><path d="m127.965 83.142h6.417c12.277 0 20.275-6.603 20.275-22.507 0-13.206-7.998-20.088-21.112-20.088h-5.58zm-11.16 9.207v-61.01h17.484c20.647 0 32.086 10.324 32.086 28.738 0 22.042-12.462 32.272-32.458 32.272z"/><path d="m177.626 92.349h11.16v-61.01h-11.16z"/><path d="m228.405 61.844h20.181v29.389c-6.045 1.209-11.718 1.767-18.321 1.767-17.95 0-30.226-9.858-30.226-29.389 0-22.413 14.415-32.922 33.016-32.922 5.58 0 9.486.372 13.764 1.209l-.837 9.486c-5.022-.744-8.462-.93-13.299-.93-12.183 0-20.926 7.347-20.926 22.042 0 14.229 8.556 21.297 18.972 21.297 2.791 0 4.372-.093 7.069-.372v-12.462h-9.393z"/><path d="m261.14 92.349h11.16v-61.01h-11.16z"/><path d="m302.803 52.172c-3.534 0-6.789.744-10.231 2.418v32.179c2.977.465 5.395.558 8.185.558 8.928 0 15.996-5.766 15.996-18.322 0-11.904-5.394-16.833-13.95-16.833zm-3.07 40.735c-4.463 0-8.37-.186-13.298-1.023v-63.985l6.137-.559v22.042c4.186-2.139 7.72-2.976 12.091-2.976 10.974 0 18.601 7.161 18.601 21.949 0 15.624-9.766 24.552-23.531 24.552z"/><path d="m359.903 63.983c0-8.556-3.719-12.462-10.508-12.462-5.767 0-10.789 4.557-11.719 12.462zm-10.23-17.856c10.789 0 17.019 6.231 17.019 18.135 0 1.489 0 3.162-.092 5.023h-29.203c-.186 12.369 6.138 17.856 14.695 17.856 5.114 0 9.392-.93 14.043-3.069l-.093 5.766c-4.743 2.139-8.742 3.069-14.602 3.069-12.183 0-20.367-6.975-20.367-23.157 0-15.532 8.463-23.623 18.6-23.623z"/><path d="m372.644 46.964h5.487v-7.905l6.139-1.023v8.928h11.904v5.208h-11.904v26.506c0 5.952 2.975 8.556 7.161 8.556 2.325 0 3.906-.186 6.23-.651v5.301c-2.79.744-4.929 1.023-7.626 1.023-6.324 0-11.904-3.069-11.904-13.95v-26.785h-5.487z"/><path d="m431.327 63.983c0-8.556-3.721-12.462-10.51-12.462-5.765 0-10.788 4.557-11.717 12.462zm-10.23-17.856c10.788 0 17.019 6.231 17.019 18.135 0 1.489 0 3.162-.093 5.023h-29.203c-.185 12.369 6.139 17.856 14.695 17.856 5.115 0 9.393-.93 14.043-3.069l-.093 5.766c-4.743 2.139-8.742 3.069-14.602 3.069-12.182 0-20.367-6.975-20.367-23.157 0-15.532 8.463-23.623 18.601-23.623z"/></g><g transform="translate(448)"><path d="m20.434 53.288c-2.046-.558-3.348-.744-5.208-.744-2.976 0-5.394 1.488-8.835 5.022v34.783h-6.139v-45.106l6.046-.558v5.301c3.534-3.999 6.51-5.58 9.765-5.58 1.953 0 3.254.186 5.208.651z" fill="#e46b2b"/><g fill="#80c9e4"><path d="m112.314 63.748c-8.09-.613-15.14 5.417-15.76 13.473-.619 8.053 5.44 15.082 13.53 15.696 8.08.615 15.14-5.417 15.75-13.474.62-8.057-5.439-15.08-13.52-15.695"/><path d="m115.014 31.184c-16.44-1.255-32.42 5.828-42.69 18.943-2.37 3.031-1.83 7.41 1.22 9.774 3.04 2.37 7.44 1.826 9.81-1.205 7.38-9.423 18.8-14.504 30.6-13.62 11.02.836 20.84 6.688 26.941 16.056 1.339 2.055 3.589 3.174 5.879 3.174 1.3 0 2.62-.361 3.8-1.124 3.24-2.092 4.16-6.408 2.05-9.634-8.49-13.045-22.2-21.196-37.61-22.364"/><path d="m117.314 1.15c-22.99-1.748-49.05 8.703-66.4 26.61-2.68 2.769-2.6 7.18.18 9.851 2.77 2.671 7.21 2.592 9.88-.175 14.58-15.044 36.27-23.816 55.27-22.393 19.74 1.498 35.42 9.848 46.63 24.825 1.37 1.835 3.48 2.803 5.62 2.803 1.45 0 2.91-.449 4.16-1.38 3.1-2.301 3.75-6.665 1.43-9.751-13.73-18.346-32.83-28.573-56.77-30.39"/></g></g></g></svg>

<?xml version="1.0" encoding="UTF-8"?>
<svg width="624px" height="93px" viewBox="0 0 624 93" version="1.1" xmlns="http://www.w3.org/2000/svg" xmlns:xlink="http://www.w3.org/1999/xlink">
    <!-- Generator: Sketch 50.2 (55047) - http://www.bohemiancoding.com/sketch -->
    <title>nl-digibeter</title>
    <desc>Created with Sketch.</desc>
    <defs></defs>
    <g id="nl-digibeter" stroke="none" stroke-width="1" fill="none" fill-rule="evenodd">
        <polyline id="Fill-1" fill="#E46B2B" points="10.695 43.058 10.323 43.058 10.323 92.349 0 92.349 0 31.339 17.484 31.339 35.434 80.631 35.806 80.631 35.806 31.339 46.129 31.339 46.129 92.349 28.644 92.349 10.695 43.058"></polyline>
        <polyline id="Fill-2" fill="#E46B2B" points="60.821 31.339 71.981 31.339 71.981 83.142 93.093 83.142 93.093 92.349 60.821 92.349 60.821 31.339"></polyline>
        <path d="M127.965,83.142 L134.382,83.142 C146.659,83.142 154.657,76.539 154.657,60.635 C154.657,47.429 146.659,40.547 133.545,40.547 L127.965,40.547 L127.965,83.142 Z M116.805,92.349 L116.805,31.339 L134.289,31.339 C154.936,31.339 166.375,41.663 166.375,60.077 C166.375,82.119 153.913,92.349 133.917,92.349 L116.805,92.349 Z" id="Fill-3" fill="#E46B2B"></path>
        <polygon id="Fill-4" fill="#E46B2B" points="177.626 92.349 188.786 92.349 188.786 31.339 177.626 31.339"></polygon>
        <path d="M228.405,61.844 L248.586,61.844 L248.586,91.233 C242.541,92.442 236.868,93 230.265,93 C212.315,93 200.039,83.142 200.039,63.611 C200.039,41.198 214.454,30.689 233.055,30.689 C238.635,30.689 242.541,31.061 246.819,31.898 L245.982,41.384 C240.96,40.64 237.52,40.454 232.683,40.454 C220.5,40.454 211.757,47.801 211.757,62.496 C211.757,76.725 220.313,83.793 230.729,83.793 C233.52,83.793 235.101,83.7 237.798,83.421 L237.798,70.959 L228.405,70.959 L228.405,61.844" id="Fill-5" fill="#E46B2B"></path>
        <polygon id="Fill-6" fill="#E46B2B" points="261.14 92.349 272.3 92.349 272.3 31.339 261.14 31.339"></polygon>
        <path d="M302.803,52.172 C299.269,52.172 296.014,52.916 292.572,54.59 L292.572,86.769 C295.549,87.234 297.967,87.327 300.757,87.327 C309.685,87.327 316.753,81.561 316.753,69.005 C316.753,57.101 311.359,52.172 302.803,52.172 Z M299.733,92.907 C295.27,92.907 291.363,92.721 286.435,91.884 L286.435,27.899 L292.572,27.34 L292.572,49.382 C296.758,47.243 300.292,46.406 304.663,46.406 C315.637,46.406 323.264,53.567 323.264,68.355 C323.264,83.979 313.498,92.907 299.733,92.907 Z" id="Fill-7" fill="#E46B2B"></path>
        <path d="M359.903,63.983 C359.903,55.427 356.184,51.521 349.395,51.521 C343.628,51.521 338.606,56.078 337.676,63.983 L359.903,63.983 Z M349.673,46.127 C360.462,46.127 366.692,52.358 366.692,64.262 C366.692,65.751 366.692,67.424 366.6,69.285 L337.397,69.285 C337.211,81.654 343.535,87.141 352.092,87.141 C357.206,87.141 361.484,86.211 366.135,84.072 L366.042,89.838 C361.299,91.977 357.3,92.907 351.44,92.907 C339.257,92.907 331.073,85.932 331.073,69.75 C331.073,54.218 339.536,46.127 349.673,46.127 Z" id="Fill-8" fill="#E46B2B"></path>
        <path d="M372.644,46.964 L378.131,46.964 L378.131,39.059 L384.27,38.036 L384.27,46.964 L396.174,46.964 L396.174,52.172 L384.27,52.172 L384.27,78.678 C384.27,84.63 387.245,87.234 391.431,87.234 C393.756,87.234 395.337,87.048 397.661,86.583 L397.661,91.884 C394.871,92.628 392.732,92.907 390.035,92.907 C383.711,92.907 378.131,89.838 378.131,78.957 L378.131,52.172 L372.644,52.172 L372.644,46.964" id="Fill-9" fill="#E46B2B"></path>
        <path d="M431.327,63.983 C431.327,55.427 427.606,51.521 420.817,51.521 C415.052,51.521 410.029,56.078 409.1,63.983 L431.327,63.983 Z M421.097,46.127 C431.885,46.127 438.116,52.358 438.116,64.262 C438.116,65.751 438.116,67.424 438.023,69.285 L408.82,69.285 C408.635,81.654 414.959,87.141 423.515,87.141 C428.63,87.141 432.908,86.211 437.558,84.072 L437.465,89.838 C432.722,91.977 428.723,92.907 422.863,92.907 C410.681,92.907 402.496,85.932 402.496,69.75 C402.496,54.218 410.959,46.127 421.097,46.127 Z" id="Fill-10" fill="#E46B2B"></path>
        <g id="wif-icoontje" transform="translate(448.000000, 0.000000)">
            <path d="M20.434,53.288 C18.388,52.73 17.086,52.544 15.226,52.544 C12.25,52.544 9.832,54.032 6.391,57.566 L6.391,92.349 L0.252,92.349 L0.252,47.243 L6.298,46.685 L6.298,51.986 C9.832,47.987 12.808,46.406 16.063,46.406 C18.016,46.406 19.317,46.592 21.271,47.057 L20.434,53.288" id="Fill-11" fill="#E46B2B"></path>
            <path d="M112.314,63.748 C104.224,63.135 97.174,69.165 96.554,77.221 C95.935,85.274 101.994,92.303 110.084,92.917 C118.164,93.532 125.224,87.5 125.834,79.443 C126.454,71.386 120.395,64.363 112.314,63.748" id="Fill-13" fill="#80C9E4"></path>
            <path d="M115.014,31.184 C98.574,29.929 82.594,37.012 72.324,50.127 C69.954,53.158 70.494,57.537 73.544,59.901 C76.584,62.271 80.984,61.727 83.354,58.696 C90.734,49.273 102.154,44.192 113.954,45.076 C124.974,45.912 134.794,51.764 140.895,61.132 C142.234,63.187 144.484,64.306 146.774,64.306 C148.074,64.306 149.394,63.945 150.574,63.182 C153.814,61.09 154.734,56.774 152.624,53.548 C144.134,40.503 130.424,32.352 115.014,31.184" id="Fill-14" fill="#80C9E4"></path>
            <path d="M117.314,1.15 C94.324,-0.598 68.264,9.853 50.914,27.76 C48.234,30.529 48.314,34.94 51.094,37.611 C53.864,40.282 58.304,40.203 60.974,37.436 C75.554,22.392 97.244,13.62 116.244,15.043 C135.984,16.541 151.664,24.891 162.874,39.868 C164.244,41.703 166.354,42.671 168.494,42.671 C169.944,42.671 171.404,42.222 172.654,41.291 C175.754,38.99 176.404,34.626 174.084,31.54 C160.354,13.194 141.254,2.967 117.314,1.15" id="Fill-15" fill="#80C9E4"></path>
        </g>
    </g>
</svg>
